public/svg/hearts.svg

<svg width="80" height="74" viewBox="0 0 80 74" fill="none" xmlns="http://www.w3.org/2000/svg">
<path d="M19.8986 60.1695C21.7094 58.5553 22.9358 56.4262 20.9515 54.6211C18.383 52.2838 15.583 54.3087 14.3334 56.9759C12.8929 53.5392 9.59544 49.5414 6.23431 52.926C4.26739 54.9162 6.87645 57.728 9.45081 59.4463C6.10126 59.0298 1.38643 59.2554 2.50873 62.8482C3.04674 64.5376 5.97977 64.393 8.57148 63.9359C5.97977 66.1344 3.78144 69.3512 7.33926 71.4572C9.45659 72.6953 11.1921 71.0522 12.3723 68.8999C12.65 71.1737 13.4946 73.2623 15.4788 73.3722C20.3152 73.6383 19.5978 68.5586 18.2268 64.8848C21.2118 66.8808 25.1688 68.6917 25.892 64.0458C26.4068 60.9216 23.011 60.1117 19.8986 60.1695ZM14.9871 59.2727C15.1223 58.5631 15.3913 57.8858 15.7797 57.2767C16.6937 55.1438 18.1516 55.2768 20.1532 57.6759C19.5747 58.995 17.8044 59.9902 16.3813 60.5687C15.9997 60.0649 15.4959 59.6667 14.9177 59.4116C14.9455 59.3719 14.9688 59.3292 14.9871 59.2843V59.2727ZM6.54092 62.5821C6.32706 62.5948 6.11264 62.5948 5.89878 62.5821C5.97722 62.4516 6.00579 62.2971 5.97921 62.1471C5.95262 61.9972 5.87268 61.8619 5.75415 61.7663V61.7258C5.75415 61.6622 5.75415 61.5928 5.75415 61.5291C5.75415 61.2746 5.75415 61.02 5.75415 60.7654C5.75415 60.7365 5.75415 60.7076 5.75415 60.6786L5.90456 60.6208C7.60537 60.0422 9.95411 60.6208 11.6896 61.0836C11.6345 61.3577 11.6169 61.638 11.6376 61.9168C9.96518 62.31 8.25797 62.5368 6.54092 62.5937V62.5821ZM12.4012 64.9831C11.9625 66.5887 11.1565 68.0703 10.0467 69.3107L7.90041 66.8981C8.41917 66.1623 9.02524 65.492 9.70535 64.9021C10.4072 64.2756 11.1846 63.7391 12.0194 63.3053C12.1759 63.5699 12.3708 63.8097 12.5979 64.0169C12.4938 64.2946 12.4417 64.6244 12.4012 64.9947V64.9831ZM12.1235 59.8802C10.481 58.9451 9.06319 57.6615 7.96983 56.1196L7.57645 55.4601C9.82105 53.25 11.437 53.2384 12.4243 55.4253C13.1445 56.5075 13.5911 57.7484 13.726 59.0413C13.4828 59.0184 13.2378 59.0583 13.0144 59.157C12.6538 59.3125 12.3448 59.5674 12.1235 59.8918V59.8802ZM14.1714 60.1637C14.6614 60.419 15.0567 60.8245 15.2995 61.3208C15.2473 61.4648 15.2301 61.619 15.2492 61.7709C15.2683 61.9228 15.3232 62.068 15.4094 62.1945C15.3111 62.6168 14.7904 62.773 14.4202 62.8367C14.321 62.851 14.2199 62.8394 14.1266 62.8028C14.0333 62.7663 13.951 62.7062 13.888 62.6284C13.2979 62.0556 13.1764 60.5745 14.1714 60.1695V60.1637ZM14.4954 70.3001C13.8364 68.4948 13.6511 66.5506 13.9574 64.6533C14.3618 64.6849 14.7683 64.6294 15.1494 64.4907C15.5306 64.352 15.8777 64.1332 16.1673 63.8491C16.3582 64.1905 16.5375 64.5376 16.7169 64.8905C17.116 65.7249 17.4244 66.5996 17.6367 67.4998C18.4774 69.6366 17.4303 70.5739 14.4954 70.3116V70.3001ZM22.2127 65.3765C21.5014 65.1154 20.8205 64.7779 20.1821 64.3698C19.1388 63.7219 18.1414 63.0028 17.197 62.2176C18.9751 61.8027 20.8236 61.7929 22.6061 62.1887C24.3994 62.5435 24.2683 63.6061 22.2127 65.3765Z" fill="#3A3C51"/>
<path d="M79.1885 4.50567C77.4529 -0.926982 71.0026 -0.701345 67.9943 3.07664C67.6241 -0.805485 60.4101 -0.568277 57.5234 1.34096C50.2805 6.16035 58.6804 15.5735 63.9853 17.3034C70.2621 19.3515 81.4389 11.6914 79.1885 4.50567ZM66.3109 15.909C61.6366 16.2273 57.4713 11.8302 56.8986 7.36953C62.4741 10.0253 68.4943 11.6222 74.653 12.079C72.3619 14.2277 69.4337 15.5721 66.3109 15.909ZM77.3025 7.64724C77.0858 8.61537 76.6809 9.53144 76.1108 10.3433C76.0474 10.3187 75.9814 10.3013 75.9141 10.2913C69.3886 9.86881 62.9584 8.50472 56.8234 6.24135C56.8233 5.72379 56.8796 5.20777 56.9911 4.70238C57.9399 0.65248 67.3233 -0.180643 66.4902 5.0553C66.4675 5.1771 66.4844 5.30299 66.5386 5.41444C66.5927 5.52588 66.6812 5.61699 66.7911 5.67436C66.8493 5.81833 66.95 5.94112 67.0798 6.02637C67.2096 6.11162 67.3623 6.15526 67.5175 6.15149C67.6728 6.14772 67.8232 6.09671 67.9487 6.00526C68.0742 5.91381 68.1688 5.78627 68.22 5.63965C70.1233 -0.0822883 78.743 0.843404 77.3257 7.64724H77.3025Z" fill="#3A3C51"/>
<path d="M37.3251 11.3327C34.6119 7.38696 29.5615 7.57209 25.9111 10.1293C22.3707 12.6113 20.5252 17.6506 20.7046 22.0708C16.493 18.1539 11.8592 15.2553 5.71545 17.1067C0.815493 18.582 -0.64813 23.7196 0.248556 28.2845C1.52706 34.5792 7.54931 38.5076 12.9757 40.9259C16.4062 42.4476 20.0103 43.1303 23.6781 43.7725C25.4541 44.0849 28.3698 44.8023 30.0879 43.7377C30.2749 43.758 30.4634 43.7178 30.6258 43.6231C30.7883 43.5283 30.916 43.384 30.9904 43.2113C33.7557 37.1248 37.6606 31.455 38.8812 24.7784C39.6796 20.5896 39.8589 15.0123 37.3251 11.3327ZM37.3251 16.3835C39.0606 26.2479 32.697 33.9659 29.4284 42.6616C29.4051 42.7101 29.3858 42.7604 29.3706 42.812C27.7739 43.2286 25.24 42.3839 23.8343 42.1004C21.2464 41.6394 18.6887 41.023 16.1748 40.2548C10.8584 38.5423 5.14851 35.2908 2.63779 30.0838C0.694007 26.0628 1.34772 20.8963 5.5766 18.744C11.5294 15.7182 17.5054 20.5376 21.1963 24.79C21.3163 24.919 21.4749 25.0057 21.6483 25.037C21.8217 25.0684 22.0006 25.0427 22.1582 24.9639C22.3159 24.8851 22.4437 24.7574 22.5227 24.5998C22.6016 24.4423 22.6275 24.2634 22.5963 24.0899C21.8384 19.1722 23.5682 13.4213 28.0227 10.7831C32.9284 7.83823 36.5209 11.865 37.3019 16.3835H37.3251Z" fill="#3A3C51"/>
</svg>

<svg xmlns="http://www.w3.org/2000/svg" width="80" height="74" fill="#3a3c51" xmlns:v="https://vecta.io/nano"><path d="M19.9 60.17c1.8-1.614 3.037-3.743 1.053-5.548-2.568-2.337-5.368-.312-6.618 2.355-1.44-3.437-4.738-7.434-8.1-4.05-1.967 2 .642 4.802 3.217 6.52-3.35-.416-8.064-.2-6.942 3.402.538 1.7 3.47 1.545 6.063 1.088-2.592 2.2-4.8 5.415-1.232 7.52 2.117 1.238 3.853-.405 5.033-2.557.278 2.274 1.122 4.362 3.107 4.472 4.836.266 4.12-4.814 2.748-8.487 2.985 1.996 6.942 3.807 7.665-.84.515-3.124-2.88-3.934-5.993-3.876zm-4.9-.897c.135-.7.404-1.387.793-1.996.914-2.133 2.372-2 4.373.4-.578 1.32-2.35 2.314-3.772 2.893a3.72 3.72 0 0 0-1.464-1.157.65.65 0 0 0 .069-.127v-.012zm-8.446 3.3a5.29 5.29 0 0 1-.642 0 .63.63 0 0 0-.145-.816V60.68l.15-.058c1.7-.58 4.05 0 5.785.463-.055.274-.073.554-.052.833a26.06 26.06 0 0 1-5.097.677v-.012zm5.86 2.4a10.76 10.76 0 0 1-2.354 4.328L7.9 66.898a11.14 11.14 0 0 1 1.805-1.996 11.3 11.3 0 0 1 2.314-1.597 3.1 3.1 0 0 0 .579.712c-.104.278-.156.607-.197.978v-.012zm-.278-5.103a12.94 12.94 0 0 1-4.156-3.76l-.393-.66c2.245-2.2 3.86-2.222 4.848-.035a8.03 8.03 0 0 1 1.302 3.616 1.43 1.43 0 0 0-.712.116 2.07 2.07 0 0 0-.891.735v-.012zm2.048.283c.5.255.885.66 1.128 1.157-.052.144-.07.298-.05.45s.074.297.16.424c-.098.422-.62.58-1 .642a.58.58 0 0 1-.532-.208c-.6-.573-.712-2.054.283-2.46v-.006zm.324 10.136c-.66-1.805-.844-3.75-.538-5.647a2.84 2.84 0 0 0 2.21-.804l.55 1.04a12.92 12.92 0 0 1 .92 2.609c.84 2.137-.206 3.074-3.14 2.812v-.01zm7.717-4.924a10.49 10.49 0 0 1-2.03-1.007 26.71 26.71 0 0 1-2.985-2.152 12.18 12.18 0 0 1 5.409-.029c1.793.355 1.662 1.417-.393 3.188zM79.2 4.506C77.453-.927 71.003-.7 67.994 3.077 67.624-.805 60.4-.568 57.523 1.34c-7.243 4.82 1.157 14.233 6.462 15.962C70.262 19.352 81.44 11.7 79.2 4.506zM66.3 15.9c-4.674.318-8.84-4.08-9.412-8.54a49.86 49.86 0 0 0 17.754 4.709 14.46 14.46 0 0 1-8.342 3.83zm10.992-8.262a7.57 7.57 0 0 1-1.192 2.696c-.063-.025-.13-.042-.197-.052-6.526-.422-12.956-1.787-19.1-4.05 0-.518.056-1.034.168-1.54.95-4.05 10.332-4.883 9.5.353a.58.58 0 0 0 .301.619.76.76 0 0 0 .29.352c.13.085.282.13.438.125s.306-.055.43-.146.22-.22.27-.366c1.903-5.72 10.523-4.796 9.106 2.008h-.023zm-39.977 3.685c-2.713-3.946-7.764-3.76-11.414-1.203-3.54 2.482-5.386 7.52-5.207 11.94-4.212-3.917-8.845-6.815-15-4.964C.815 18.582-.648 23.72.25 28.285c1.28 6.295 7.3 10.223 12.727 12.64 3.43 1.522 7.035 2.204 10.702 2.847 1.776.312 4.692 1.03 6.4-.035a.88.88 0 0 0 .902-.526c2.765-6.087 6.67-11.756 7.9-18.433.798-4.2.978-9.766-1.556-13.446zm0 5.05c1.736 9.864-4.628 17.582-7.897 26.278a1 1 0 0 0-.058.15c-1.597.417-4.13-.428-5.536-.712a65.54 65.54 0 0 1-7.659-1.846C10.858 38.542 5.15 35.3 2.638 30.084c-1.944-4.02-1.3-9.187 2.94-11.34 5.953-3.026 11.93 1.794 15.62 6.046a.81.81 0 0 0 .452.247.78.78 0 0 0 .5-.073c.148-.08.285-.206.364-.364s.105-.336.074-.5c-.758-4.918.972-10.67 5.426-13.307 4.906-2.945 8.498 1.082 9.28 5.6h.023z"/></svg>
